X:533
T:Priest in His Boots, The
T:Priest and His Boots, The
T:Rocking the Cradle
R:jig
H:See also #57, #534 in D, and #518 in G
D:Arty McGlynn on Music at Matt Molloy's
Z:id:hn-jig-533
M:6/8
L:1/8
K:G
ABA DFA | dBG AFD | GFG A2B | cBc AFG |
~A3 DFA | dBG AFD | GFG A2d | cAF G3 :|
|: d2B cBA | BAG AFD | GFG A2B | cBc ABc |
d2B cBA | BAG AFD | GFG A2d | cAF G3 :|

